svgs/s_notz.svg

<svg xmlns="http://www.w3.org/2000/svg" viewBox="0 0 192 192"><path d="M167.132 16.5H24.868a8.371 8.371 0 0 0-8.368 8.368v142.264a8.375 8.375 0 0 0 4.184 7.247 8.375 8.375 0 0 0 4.184 1.121h106.949v-43.683H175.5V24.868a8.375 8.375 0 0 0-4.184-7.247 8.375 8.375 0 0 0-4.184-1.121Zm-35.315 159 43.683-43.683M39.513 54.158h112.974M39.513 96h112.974M39.513 137.842h67.199" fill="none" stroke="#000" stroke-width="12" stroke-linecap="round" stroke-linejoin="round"/></svg>

<svg
    xmlns="http://www.w3.org/2000/svg"
    viewBox="0 0 192 192"
    id="vector">
    <path
        id="path"
        d="M 167.132 16.5 L 24.868 16.5 C 22.65 16.5 20.52 17.382 18.951 18.951 C 17.382 20.52 16.5 22.65 16.5 24.868 L 16.5 167.132 C 16.5 168.6 16.887 170.044 17.621 171.316 C 18.356 172.588 19.412 173.644 20.684 174.379 C 21.956 175.113 23.4 175.5 24.868 175.5 L 131.817 175.5 L 131.817 131.817 L 175.5 131.817 L 175.5 24.868 C 175.5 23.4 175.113 21.956 174.379 20.684 C 173.644 19.412 172.588 18.356 171.316 17.621 C 170.044 16.887 168.6 16.5 167.132 16.5 Z M 131.817 175.5 L 175.5 131.817 M 39.513 54.158 L 152.487 54.158 M 39.513 96 L 152.487 96 M 39.513 137.842 L 106.712 137.842"
        fill="none"
        stroke="#000000"
        stroke-width="12"
        stroke-linecap="round"
        stroke-linejoin="round"/>
</svg>
